X:1
L:1/8
Q:3/4=30
M:3/4
K:G
 D2 | G2 G2 (3GBd | d2 c2 B2 | A(B/c/) B2 TA2 |{B} A4 DG | GF F2 DB | B2 ^c2 d2 | c/B/A/G/ F2 E2 | 
 D4 :: d2 | e/d/c/B/ c2 Dc | d2 B2 Ge | e2 (dc)(Bc) |{B} A4 D2 | G>BA>cB>d | d2 c2 Bg | 
 f/e/d/c/ B2 A2 | G4 :|
